src/assets/img/scrum.svg

<svg width="80" height="76" viewBox="0 0 80 76" fill="none" xmlns="http://www.w3.org/2000/svg">
<path fill-rule="evenodd" clip-rule="evenodd" d="M78.3013 20.2049L71.2114 30.1354L64.1215 20.2049H67.9871C67.6924 12.8264 61.6079 6.92361 54.1713 6.92361C47.8961 6.92361 42.5743 11.1424 40.8929 16.8889C38.8474 16.2292 36.7325 15.8125 34.583 15.6215C34.8257 14.7014 35.1377 13.7812 35.5191 12.8958C36.5418 10.4826 37.998 8.3125 39.8528 6.45486C41.7076 4.59722 43.8744 3.12153 46.284 2.11458C48.7802 1.03819 51.4324 0.5 54.1713 0.5C56.9102 0.5 59.5624 1.03819 62.0586 2.09722C64.4682 3.12153 66.635 4.57986 68.4898 6.4375C70.3447 8.29514 71.8008 10.4653 72.8235 12.8785C73.8116 15.2049 74.349 17.6701 74.401 20.2049H78.3013V20.2049Z" fill="#cb0f09"/>
<path fill-rule="evenodd" clip-rule="evenodd" d="M68.3859 75.4999V71.229H43.9438C44.1172 71.1422 44.2905 71.0728 44.4639 70.986C47.1161 69.7186 49.5603 68.0693 51.7445 66.0554C52.0392 65.7776 52.3165 65.5172 52.5766 65.2568C52.8713 64.9617 53.1833 64.6492 53.478 64.3193C53.8247 63.9374 54.1714 63.5381 54.4834 63.1387H68.3859V58.8679L80.0002 67.1839L68.3859 75.4999Z" fill="#cb0f09"/>
<path fill-rule="evenodd" clip-rule="evenodd" d="M59.3716 44.6493C59.3716 48.3473 58.6435 51.941 57.2221 55.3264C56.0087 58.2084 54.3099 60.8473 52.195 63.1563C51.9177 63.4514 51.6403 63.7466 51.3629 64.0417C51.1029 64.3021 50.8429 64.5452 50.5829 64.8056C48.5374 66.698 46.2492 68.2431 43.753 69.441C43.4063 69.6146 43.0422 69.7709 42.6782 69.9271C42.6609 69.9271 42.6609 69.9445 42.6435 69.9445C40.5634 70.8299 38.3272 71.2639 36.0563 71.2639H0V63.191H33.4735C43.597 63.191 51.9003 55.0834 52.039 44.9445C52.039 44.8577 52.039 44.7709 52.039 44.6841C52.039 33.6077 43.0596 24.6146 32 24.6146C20.9404 24.5799 11.961 33.5556 11.961 44.6493H16.6067L8.30336 56.2813L0 44.6493H4.64572C4.64572 40.9514 5.37378 37.3577 6.79523 33.9723C8.18201 30.7084 10.1408 27.7743 12.6544 25.257C15.1679 22.7396 18.0975 20.7605 21.3564 19.3889C24.7367 17.9653 28.325 17.2361 32.0173 17.2361C32.7627 17.2361 33.4908 17.2709 34.2188 17.323C36.3684 17.4966 38.4659 17.9132 40.5114 18.5903C41.2394 18.8334 41.9502 19.0938 42.6609 19.4063C45.9198 20.7952 48.8494 22.757 51.3629 25.2743C53.8765 27.7917 55.8526 30.7257 57.2221 33.9896C58.6435 37.3577 59.3716 40.9514 59.3716 44.6493Z" fill="#cb0f09"/>
</svg>

<svg xmlns="http://www.w3.org/2000/svg" width="80" height="76" fill="none"><path fill="#cb0f09" fill-rule="evenodd" d="m78.301 20.205-7.09 9.93-7.09-9.93h3.866c-.295-7.379-6.38-13.281-13.816-13.281-6.275 0-11.597 4.218-13.278 9.965a28.855 28.855 0 0 0-6.31-1.268c.243-.92.555-1.84.936-2.725a20.266 20.266 0 0 1 4.334-6.441 19.95 19.95 0 0 1 6.431-4.34A19.791 19.791 0 0 1 54.171.5c2.74 0 5.391.538 7.888 1.597a20.232 20.232 0 0 1 6.43 4.34 20.265 20.265 0 0 1 4.334 6.442 19.702 19.702 0 0 1 1.578 7.326h3.9ZM68.386 75.5v-4.271H43.944c.173-.087.346-.156.52-.243a29.435 29.435 0 0 0 7.28-4.93c.295-.278.572-.539.833-.8.294-.294.606-.607.901-.937.347-.382.693-.78 1.005-1.18h13.903v-4.271L80 67.184 68.386 75.5ZM59.372 44.65c0 3.697-.728 7.291-2.15 10.676a27.218 27.218 0 0 1-5.027 7.83l-.832.886c-.26.26-.52.503-.78.764a27.593 27.593 0 0 1-6.83 4.635c-.347.174-.71.33-1.075.486-.017 0-.017.017-.034.017a16.781 16.781 0 0 1-6.588 1.32H0V63.19h33.474c10.123 0 18.426-8.108 18.565-18.247v-.26c0-11.076-8.98-20.07-20.039-20.07-11.06-.034-20.039 8.942-20.039 20.035h4.646L8.303 56.281 0 44.65h4.646c0-3.698.728-7.291 2.15-10.677a27.45 27.45 0 0 1 5.858-8.715 27.123 27.123 0 0 1 8.702-5.868 27.332 27.332 0 0 1 10.661-2.153c.746 0 1.474.035 2.202.087 2.15.174 4.247.59 6.292 1.267.728.243 1.44.504 2.15.816a27.407 27.407 0 0 1 8.702 5.868 27.169 27.169 0 0 1 5.86 8.716 27.298 27.298 0 0 1 2.149 10.66Z" clip-rule="evenodd"/></svg>
